miniprogram/assets/figma/grid-messages-dots.svg

<svg width="24" height="24" viewBox="0 0 24 24" fill="none" xmlns="http://www.w3.org/2000/svg">
<path d="M10 8C9.44771 8 9 8.44772 9 9C9 9.55229 9.44771 10 10 10C10.5523 10 11.0001 9.55229 11.0001 9C11.0001 8.44772 10.5523 8 10 8Z" fill="#9CA3AF"/>
<path d="M5.5 9C5.5 8.44772 5.94772 8 6.5 8C7.05228 8 7.5001 8.44772 7.5001 9C7.5001 9.55229 7.05238 10 6.5001 10C5.94782 10 5.5 9.55229 5.5 9Z" fill="#9CA3AF"/>
<path d="M13.5 8C12.9477 8 12.5 8.44772 12.5 9C12.5 9.55229 12.9477 10 13.5 10C14.0523 10 14.5001 9.55229 14.5001 9C14.5001 8.44772 14.0523 8 13.5 8Z" fill="#9CA3AF"/>
<path fill-rule="evenodd" clip-rule="evenodd" d="M1.25 4.79954C1.25 2.83907 2.8395 1.25 4.8 1.25H15.2C17.1605 1.25 18.75 2.83907 18.75 4.79955V12.7983C18.75 14.7587 17.1605 16.3478 15.2 16.3478H6.01451C5.91377 16.3478 5.81596 16.3816 5.73672 16.4437L3.10974 18.5041C2.35523 19.0959 1.25 18.5587 1.25 17.5993V4.79954ZM4.8 2.75C3.6677 2.75 2.75 3.66773 2.75 4.79954V16.8799L4.81101 15.2635C5.15437 14.9942 5.57814 14.8478 6.01451 14.8478H15.2C16.3323 14.8478 17.25 13.9301 17.25 12.7983V4.79955C17.25 3.66773 16.3323 2.75 15.2 2.75H4.8Z" fill="#9CA3AF"/>
<path d="M20.4112 7.09865C20.6678 6.77349 21.1394 6.71791 21.4646 6.97451C22.2461 7.59123 22.75 8.54929 22.75 9.62462V21.6244C22.75 22.5629 21.6688 23.0885 20.9307 22.5096L18.4679 20.5779C18.4019 20.5261 18.3203 20.498 18.2364 20.498H9.62499C8.40943 20.498 7.34468 19.8549 6.75145 18.894C6.53386 18.5416 6.64319 18.0795 6.99565 17.8619C7.3481 17.6443 7.81022 17.7536 8.02781 18.1061C8.35922 18.6429 8.95092 18.998 9.62499 18.998H18.2364C18.656 18.998 19.0634 19.1387 19.3936 19.3977L21.25 20.8537V9.62462C21.25 9.02793 20.972 8.49657 20.5354 8.15202C20.2102 7.89542 20.1546 7.42381 20.4112 7.09865Z" fill="#9CA3AF"/>
</svg>

<svg xmlns="http://www.w3.org/2000/svg" width="24" height="24" fill="none" viewBox="0 0 24 24"><path fill="#9ca3af" d="M10 8a1 1 0 1 0 0 2 1 1 0 0 0 0-2M5.5 9a1 1 0 1 1 2 0 1 1 0 0 1-2 0m8-1a1 1 0 1 0 0 2 1 1 0 0 0 0-2"/><path fill="#9ca3af" fill-rule="evenodd" d="M1.25 4.8A3.55 3.55 0 0 1 4.8 1.25h10.4a3.55 3.55 0 0 1 3.55 3.55v7.998a3.55 3.55 0 0 1-3.55 3.55H6.015a.45.45 0 0 0-.278.096l-2.627 2.06a1.15 1.15 0 0 1-1.86-.905zM4.8 2.75A2.05 2.05 0 0 0 2.75 4.8v12.08l2.061-1.616a1.95 1.95 0 0 1 1.204-.416H15.2a2.05 2.05 0 0 0 2.05-2.05V4.8a2.05 2.05 0 0 0-2.05-2.05z" clip-rule="evenodd"/><path fill="#9ca3af" d="M20.411 7.099a.75.75 0 0 1 1.054-.124 3.37 3.37 0 0 1 1.285 2.65v12a1.125 1.125 0 0 1-1.82.885l-2.462-1.932a.38.38 0 0 0-.232-.08H9.625a3.37 3.37 0 0 1-2.874-1.604.75.75 0 1 1 1.277-.788c.331.537.923.892 1.597.892h8.611c.42 0 .827.14 1.158.4l1.856 1.456V9.624a1.87 1.87 0 0 0-.715-1.472.75.75 0 0 1-.124-1.053"/></svg>
